producthuntturkey/static/images/svg/twitter_tr.svg

<svg width="156" height="55" viewBox="0 0 156 55" fill="none" xmlns="http://www.w3.org/2000/svg">
<path d="M149.124 1H6.8755C3.63055 1 1 5.25329 1 10.5V44.5C1 49.7467 3.63055 54 6.8755 54H149.124C152.369 54 155 49.7467 155 44.5V10.5C155 5.25329 152.369 1 149.124 1Z" fill="#FFFFFC" stroke="black"/>
<path d="M67.305 22C66.897 22 66.693 21.796 66.693 21.388V16.267C66.693 15.859 66.897 15.655 67.305 15.655H69.465C70.131 15.655 70.647 15.802 71.013 16.096C71.379 16.384 71.562 16.786 71.562 17.302C71.562 17.644 71.475 17.938 71.301 18.184C71.127 18.43 70.887 18.61 70.581 18.724C70.941 18.826 71.22 19.006 71.418 19.264C71.622 19.516 71.724 19.837 71.724 20.227C71.724 20.791 71.532 21.229 71.148 21.541C70.77 21.847 70.242 22 69.564 22H67.305ZM67.8 18.346H69.267C70.053 18.346 70.446 18.043 70.446 17.437C70.446 16.831 70.053 16.528 69.267 16.528H67.8V18.346ZM67.8 21.127H69.42C70.212 21.127 70.608 20.809 70.608 20.173C70.608 19.537 70.212 19.219 69.42 19.219H67.8V21.127ZM74.5003 22.072C74.1163 22.072 73.9243 21.874 73.9243 21.478V16.177C73.9243 15.781 74.1163 15.583 74.5003 15.583C74.8843 15.583 75.0763 15.781 75.0763 16.177V21.478C75.0763 21.874 74.8843 22.072 74.5003 22.072ZM74.5003 14.899C74.1103 14.899 73.9153 14.71 73.9153 14.332C73.9153 13.96 74.1103 13.774 74.5003 13.774C74.8903 13.774 75.0853 13.96 75.0853 14.332C75.0853 14.71 74.8903 14.899 74.5003 14.899ZM77.7603 22C77.5623 22 77.4123 21.949 77.3103 21.847C77.2143 21.739 77.1723 21.601 77.1843 21.433C77.2023 21.265 77.2773 21.091 77.4093 20.911L80.5773 16.618H77.6703C77.3283 16.618 77.1573 16.456 77.1573 16.132C77.1573 15.814 77.3283 15.655 77.6703 15.655H81.3963C81.5943 15.655 81.7413 15.709 81.8373 15.817C81.9393 15.919 81.9843 16.054 81.9723 16.222C81.9603 16.384 81.8853 16.558 81.7473 16.744L78.5793 21.037H81.6213C81.9633 21.037 82.1343 21.196 82.1343 21.514C82.1343 21.838 81.9633 22 81.6213 22H77.7603ZM84.5595 22.072C84.1755 22.072 83.9835 21.874 83.9835 21.478V16.177C83.9835 15.781 84.1755 15.583 84.5595 15.583C84.9435 15.583 85.1355 15.781 85.1355 16.177V21.478C85.1355 21.874 84.9435 22.072 84.5595 22.072ZM84.5595 14.899C84.1695 14.899 83.9745 14.71 83.9745 14.332C83.9745 13.96 84.1695 13.774 84.5595 13.774C84.9495 13.774 85.1445 13.96 85.1445 14.332C85.1445 14.71 84.9495 14.899 84.5595 14.899ZM93.1429 22.072C92.7589 22.072 92.5669 21.874 92.5669 21.478V16.618H90.8119C90.4819 16.618 90.3169 16.456 90.3169 16.132C90.3169 15.814 90.4819 15.655 90.8119 15.655H95.4739C95.8039 15.655 95.9689 15.814 95.9689 16.132C95.9689 16.456 95.8039 16.618 95.4739 16.618H93.7189V21.478C93.7189 21.874 93.5269 22.072 93.1429 22.072ZM97.0217 22.072C96.8117 22.072 96.6617 22 96.5717 21.856C96.4817 21.712 96.4847 21.538 96.5807 21.334L98.9567 16.069C99.0347 15.895 99.1277 15.772 99.2357 15.7C99.3497 15.622 99.4787 15.583 99.6227 15.583C99.7607 15.583 99.8837 15.622 99.9917 15.7C100.106 15.772 100.202 15.895 100.28 16.069L102.665 21.334C102.761 21.544 102.767 21.721 102.683 21.865C102.599 22.003 102.455 22.072 102.251 22.072C102.083 22.072 101.951 22.033 101.855 21.955C101.765 21.871 101.684 21.745 101.612 21.577L101.162 20.533H98.0657L97.6247 21.577C97.5467 21.751 97.4657 21.877 97.3817 21.955C97.2977 22.033 97.1777 22.072 97.0217 22.072ZM99.6047 16.906L98.4617 19.615H100.766L99.6227 16.906H99.6047ZM105.267 22.072C104.883 22.072 104.691 21.874 104.691 21.478V16.168C104.691 15.778 104.883 15.583 105.267 15.583C105.651 15.583 105.843 15.778 105.843 16.168V18.463H105.861L108.444 15.871C108.54 15.775 108.636 15.703 108.732 15.655C108.828 15.607 108.936 15.583 109.056 15.583C109.23 15.583 109.353 15.628 109.425 15.718C109.503 15.808 109.533 15.913 109.515 16.033C109.503 16.153 109.446 16.264 109.344 16.366L106.977 18.706L109.47 21.235C109.596 21.355 109.662 21.481 109.668 21.613C109.674 21.745 109.632 21.856 109.542 21.946C109.458 22.03 109.332 22.072 109.164 22.072C109.02 22.072 108.903 22.042 108.813 21.982C108.729 21.922 108.63 21.835 108.516 21.721L105.861 19.066H105.843V21.478C105.843 21.874 105.651 22.072 105.267 22.072ZM112.287 22.072C111.903 22.072 111.711 21.874 111.711 21.478V16.177C111.711 15.781 111.903 15.583 112.287 15.583C112.671 15.583 112.863 15.781 112.863 16.177V21.478C112.863 21.874 112.671 22.072 112.287 22.072ZM112.287 14.899C111.897 14.899 111.702 14.71 111.702 14.332C111.702 13.96 111.897 13.774 112.287 13.774C112.677 13.774 112.872 13.96 112.872 14.332C112.872 14.71 112.677 14.899 112.287 14.899ZM115.862 22.072C115.478 22.072 115.286 21.874 115.286 21.478V16.24C115.286 15.85 115.481 15.655 115.871 15.655H118.04C118.736 15.655 119.273 15.829 119.651 16.177C120.029 16.525 120.218 17.011 120.218 17.635C120.218 18.259 120.029 18.748 119.651 19.102C119.273 19.45 118.736 19.624 118.04 19.624H116.438V21.478C116.438 21.874 116.246 22.072 115.862 22.072ZM116.438 18.715H117.86C118.688 18.715 119.102 18.355 119.102 17.635C119.102 16.921 118.688 16.564 117.86 16.564H116.438V18.715ZM126.283 22C125.875 22 125.671 21.796 125.671 21.388V16.267C125.671 15.859 125.875 15.655 126.283 15.655H129.496C129.808 15.655 129.964 15.805 129.964 16.105C129.964 16.417 129.808 16.573 129.496 16.573H126.778V18.319H129.298C129.61 18.319 129.766 18.472 129.766 18.778C129.766 19.084 129.61 19.237 129.298 19.237H126.778V21.082H129.496C129.808 21.082 129.964 21.235 129.964 21.541C129.964 21.847 129.808 22 129.496 22H126.283ZM134.138 22.072C133.754 22.072 133.562 21.874 133.562 21.478V16.618H131.807C131.477 16.618 131.312 16.456 131.312 16.132C131.312 15.814 131.477 15.655 131.807 15.655H136.469C136.799 15.655 136.964 15.814 136.964 16.132C136.964 16.456 136.799 16.618 136.469 16.618H134.714V21.478C134.714 21.874 134.522 22.072 134.138 22.072Z" fill="black"/>
<path d="M71.706 41.162C71.25 41.162 70.902 41.036 70.662 40.784C70.422 40.532 70.302 40.178 70.302 39.722V30.614H67.116C66.336 30.614 65.946 30.23 65.946 29.462C65.946 28.694 66.336 28.31 67.116 28.31H76.278C77.058 28.31 77.448 28.694 77.448 29.462C77.448 30.23 77.058 30.614 76.278 30.614H73.092V39.722C73.092 40.178 72.972 40.532 72.732 40.784C72.504 41.036 72.162 41.162 71.706 41.162ZM82.2844 41.162C81.5524 41.162 81.0424 40.796 80.7544 40.064L78.2164 33.782C78.0244 33.29 78.0244 32.876 78.2164 32.54C78.4204 32.192 78.7984 32.018 79.3504 32.018C79.6624 32.018 79.9144 32.096 80.1064 32.252C80.3104 32.396 80.4904 32.678 80.6464 33.098L82.4104 37.832L84.2644 32.864C84.4684 32.3 84.8524 32.018 85.4164 32.018C85.9804 32.018 86.3704 32.3 86.5864 32.864L88.4224 37.904L90.2224 33.026C90.3664 32.642 90.5464 32.378 90.7624 32.234C90.9904 32.09 91.2424 32.018 91.5184 32.018C92.0344 32.018 92.3704 32.198 92.5264 32.558C92.6824 32.918 92.6644 33.326 92.4724 33.782L89.9524 40.064C89.6644 40.796 89.1544 41.162 88.4224 41.162C87.6904 41.162 87.1804 40.796 86.8924 40.064L85.3264 35.978L83.7964 40.046C83.5204 40.79 83.0164 41.162 82.2844 41.162ZM97.1403 30.542C96.6363 30.542 96.2463 30.428 95.9703 30.2C95.7063 29.96 95.5743 29.624 95.5743 29.192C95.5743 28.748 95.7063 28.412 95.9703 28.184C96.2463 27.944 96.6363 27.824 97.1403 27.824C98.1723 27.824 98.6883 28.28 98.6883 29.192C98.6883 30.092 98.1723 30.542 97.1403 30.542ZM97.1403 41.144C96.6963 41.144 96.3543 41.018 96.1143 40.766C95.8863 40.502 95.7723 40.136 95.7723 39.668V33.512C95.7723 32.516 96.2283 32.018 97.1403 32.018C97.5723 32.018 97.9023 32.15 98.1303 32.414C98.3703 32.666 98.4903 33.032 98.4903 33.512V39.668C98.4903 40.136 98.3763 40.502 98.1483 40.766C97.9203 41.018 97.5843 41.144 97.1403 41.144ZM106.547 41.198C104.063 41.198 102.821 39.992 102.821 37.58V34.196H102.065C101.357 34.196 101.003 33.86 101.003 33.188C101.003 32.504 101.357 32.162 102.065 32.162H102.821V30.794C102.821 29.87 103.277 29.408 104.189 29.408C105.089 29.408 105.539 29.87 105.539 30.794V32.162H107.249C107.945 32.162 108.293 32.504 108.293 33.188C108.293 33.86 107.945 34.196 107.249 34.196H105.539V37.472C105.539 37.976 105.653 38.354 105.881 38.606C106.121 38.858 106.499 38.984 107.015 38.984C107.195 38.984 107.363 38.966 107.519 38.93C107.675 38.894 107.819 38.87 107.951 38.858C108.119 38.846 108.257 38.9 108.365 39.02C108.473 39.14 108.527 39.386 108.527 39.758C108.527 40.058 108.479 40.316 108.383 40.532C108.287 40.736 108.119 40.886 107.879 40.982C107.723 41.042 107.507 41.09 107.231 41.126C106.967 41.174 106.739 41.198 106.547 41.198ZM114.794 41.198C112.31 41.198 111.068 39.992 111.068 37.58V34.196H110.312C109.604 34.196 109.25 33.86 109.25 33.188C109.25 32.504 109.604 32.162 110.312 32.162H111.068V30.794C111.068 29.87 111.524 29.408 112.436 29.408C113.336 29.408 113.786 29.87 113.786 30.794V32.162H115.496C116.192 32.162 116.54 32.504 116.54 33.188C116.54 33.86 116.192 34.196 115.496 34.196H113.786V37.472C113.786 37.976 113.9 38.354 114.128 38.606C114.368 38.858 114.746 38.984 115.262 38.984C115.442 38.984 115.61 38.966 115.766 38.93C115.922 38.894 116.066 38.87 116.198 38.858C116.366 38.846 116.504 38.9 116.612 39.02C116.72 39.14 116.774 39.386 116.774 39.758C116.774 40.058 116.726 40.316 116.63 40.532C116.534 40.736 116.366 40.886 116.126 40.982C115.97 41.042 115.754 41.09 115.478 41.126C115.214 41.174 114.986 41.198 114.794 41.198ZM123.855 41.198C122.811 41.198 121.911 41.012 121.155 40.64C120.411 40.256 119.835 39.722 119.427 39.038C119.031 38.342 118.833 37.526 118.833 36.59C118.833 35.678 119.025 34.88 119.409 34.196C119.805 33.5 120.339 32.96 121.011 32.576C121.695 32.18 122.481 31.982 123.369 31.982C124.653 31.982 125.673 32.39 126.429 33.206C127.185 34.01 127.563 35.102 127.563 36.482C127.563 36.938 127.281 37.166 126.717 37.166H121.425C121.521 37.862 121.773 38.372 122.181 38.696C122.601 39.008 123.177 39.164 123.909 39.164C124.197 39.164 124.521 39.134 124.881 39.074C125.253 39.002 125.607 38.882 125.943 38.714C126.291 38.546 126.585 38.516 126.825 38.624C127.065 38.72 127.227 38.888 127.311 39.128C127.407 39.368 127.407 39.62 127.311 39.884C127.227 40.136 127.029 40.346 126.717 40.514C126.297 40.742 125.829 40.91 125.313 41.018C124.809 41.138 124.323 41.198 123.855 41.198ZM123.477 33.782C122.901 33.782 122.433 33.956 122.073 34.304C121.725 34.652 121.509 35.138 121.425 35.762H125.313C125.241 34.442 124.629 33.782 123.477 33.782ZM132.168 41.162C131.232 41.162 130.764 40.7 130.764 39.776V33.386C130.764 32.474 131.208 32.018 132.096 32.018C132.984 32.018 133.428 32.474 133.428 33.386V33.71C133.86 32.642 134.754 32.066 136.11 31.982C136.41 31.958 136.638 32.036 136.794 32.216C136.962 32.384 137.052 32.666 137.064 33.062C137.088 33.434 137.01 33.728 136.83 33.944C136.662 34.16 136.374 34.292 135.966 34.34L135.552 34.376C134.208 34.508 133.536 35.192 133.536 36.428V39.776C133.536 40.7 133.08 41.162 132.168 41.162Z" fill="black"/>
<g clip-path="url(#clip0_242_31)">
<path d="M51 16.6456C49.7123 17.2173 48.3283 17.6023 46.8758 17.7758C48.359 16.8877 49.4979 15.4804 50.0331 13.8033C48.6463 14.6258 47.1092 15.2237 45.4729 15.546C44.1648 14.1504 42.2967 13.2783 40.2317 13.2783C35.5956 13.2783 32.189 17.6037 33.236 22.0939C27.27 21.795 21.9792 18.9367 18.4369 14.5923C16.5556 17.8196 17.4613 22.0414 20.6579 24.1794C19.4825 24.1414 18.3742 23.8192 17.4073 23.281C17.3285 26.6075 19.7129 29.7196 23.1663 30.4123C22.1556 30.6864 21.0488 30.7506 19.9229 30.5348C20.8358 33.3873 23.4871 35.4625 26.6313 35.5208C23.6125 37.8877 19.8092 38.945 16 38.4958C19.1777 40.5331 22.9533 41.7217 27.0075 41.7217C40.3396 41.7217 47.8719 30.4619 47.4169 20.3629C48.8198 19.3494 50.0375 18.085 51 16.6456V16.6456Z" fill="black"/>
</g>
<defs>
<clipPath id="clip0_242_31">
<rect width="35" height="35" fill="white" transform="translate(16 10)"/>
</clipPath>
</defs>
</svg>

<svg xmlns="http://www.w3.org/2000/svg" width="156" height="55" fill="none" xmlns:v="https://vecta.io/nano"><path d="M149.124 1H6.876C3.631 1 1 5.253 1 10.5v34C1 49.747 3.631 54 6.876 54h142.249c3.245 0 5.876-4.253 5.876-9.5v-34c0-5.247-2.631-9.5-5.876-9.5z" fill="#fffffc" stroke="#000"/><path d="M67.305 22c-.408 0-.612-.204-.612-.612v-5.121c0-.408.204-.612.612-.612h2.16c.666 0 1.182.147 1.548.441.366.288.549.69.549 1.206 0 .342-.087.636-.261.882s-.414.426-.72.54c.36.102.639.282.837.54.204.252.306.573.306.963 0 .564-.192 1.002-.576 1.314-.378.306-.906.459-1.584.459h-2.259zm.495-3.654h1.467c.786 0 1.179-.303 1.179-.909s-.393-.909-1.179-.909H67.8v1.818zm0 2.781h1.62c.792 0 1.188-.318 1.188-.954s-.396-.954-1.188-.954H67.8v1.908zm6.7.945c-.384 0-.576-.198-.576-.594v-5.301c0-.396.192-.594.576-.594s.576.198.576.594v5.301c0 .396-.192.594-.576.594zm0-7.173c-.39 0-.585-.189-.585-.567 0-.372.195-.558.585-.558s.585.186.585.558c0 .378-.195.567-.585.567zM77.76 22c-.198 0-.348-.051-.45-.153-.096-.108-.138-.246-.126-.414.018-.168.093-.342.225-.522l3.168-4.293H77.67c-.342 0-.513-.162-.513-.486 0-.318.171-.477.513-.477h3.726c.198 0 .345.054.441.162.102.102.147.237.135.405-.012.162-.087.336-.225.522l-3.168 4.293h3.042c.342 0 .513.159.513.477 0 .324-.171.486-.513.486H77.76zm6.799.072c-.384 0-.576-.198-.576-.594v-5.301c0-.396.192-.594.576-.594s.576.198.576.594v5.301c0 .396-.192.594-.576.594zm0-7.173c-.39 0-.585-.189-.585-.567 0-.372.195-.558.585-.558s.585.186.585.558c0 .378-.195.567-.585.567zm8.583 7.173c-.384 0-.576-.198-.576-.594v-4.86h-1.755c-.33 0-.495-.162-.495-.486 0-.318.165-.477.495-.477h4.662c.33 0 .495.159.495.477 0 .324-.165.486-.495.486h-1.755v4.86c0 .396-.192.594-.576.594zm3.879 0c-.21 0-.36-.072-.45-.216s-.087-.318.009-.522l2.376-5.265c.078-.174.171-.297.279-.369a.67.67 0 0 1 .387-.117c.138 0 .261.039.369.117a.81.81 0 0 1 .288.369l2.385 5.265c.096.21.102.387.018.531-.084.138-.228.207-.432.207-.168 0-.3-.039-.396-.117-.09-.084-.171-.21-.243-.378l-.45-1.044h-3.096l-.441 1.044c-.078.174-.159.3-.243.378s-.204.117-.36.117zm2.583-5.166l-1.143 2.709h2.304l-1.143-2.709h-.018zm5.662 5.166c-.384 0-.576-.198-.576-.594v-5.31c0-.39.192-.585.576-.585s.576.195.576.585v2.295h.018l2.583-2.592a1.13 1.13 0 0 1 .288-.216c.096-.048.204-.072.324-.072.174 0 .297.045.369.135.078.09.108.195.09.315-.012.12-.069.231-.171.333l-2.367 2.34 2.493 2.529a.56.56 0 0 1 .198.378c.006.132-.036.243-.126.333-.084.084-.21.126-.378.126-.144 0-.261-.03-.351-.09-.084-.06-.183-.147-.297-.261l-2.655-2.655h-.018v2.412c0 .396-.192.594-.576.594zm7.02 0c-.384 0-.576-.198-.576-.594v-5.301c0-.396.192-.594.576-.594s.576.198.576.594v5.301c0 .396-.192.594-.576.594zm0-7.173c-.39 0-.585-.189-.585-.567 0-.372.195-.558.585-.558s.585.186.585.558c0 .378-.195.567-.585.567zm3.575 7.173c-.384 0-.576-.198-.576-.594V16.24c0-.39.195-.585.585-.585h2.169c.696 0 1.233.174 1.611.522s.567.834.567 1.458-.189 1.113-.567 1.467c-.378.348-.915.522-1.611.522h-1.602v1.854c0 .396-.192.594-.576.594zm.576-3.357h1.422c.828 0 1.242-.36 1.242-1.08 0-.714-.414-1.071-1.242-1.071h-1.422v2.151zM126.283 22c-.408 0-.612-.204-.612-.612v-5.121c0-.408.204-.612.612-.612h3.213c.312 0 .468.15.468.45 0 .312-.156.468-.468.468h-2.718v1.746h2.52c.312 0 .468.153.468.459s-.156.459-.468.459h-2.52v1.845h2.718c.312 0 .468.153.468.459s-.156.459-.468.459h-3.213zm7.855.072c-.384 0-.576-.198-.576-.594v-4.86h-1.755c-.33 0-.495-.162-.495-.486 0-.318.165-.477.495-.477h4.662c.33 0 .495.159.495.477 0 .324-.165.486-.495.486h-1.755v4.86c0 .396-.192.594-.576.594zm-62.432 19.09c-.456 0-.804-.126-1.044-.378s-.36-.606-.36-1.062v-9.108h-3.186c-.78 0-1.17-.384-1.17-1.152s.39-1.152 1.17-1.152h9.162c.78 0 1.17.384 1.17 1.152s-.39 1.152-1.17 1.152h-3.186v9.108c0 .456-.12.81-.36 1.062-.228.252-.57.378-1.026.378zm10.578 0c-.732 0-1.242-.366-1.53-1.098l-2.538-6.282c-.192-.492-.192-.906 0-1.242.204-.348.582-.522 1.134-.522.312 0 .564.078.756.234.204.144.384.426.54.846l1.764 4.734 1.854-4.968c.204-.564.588-.846 1.152-.846s.954.282 1.17.846l1.836 5.04 1.8-4.878c.144-.384.324-.648.54-.792.228-.144.48-.216.756-.216.516 0 .852.18 1.008.54s.138.768-.054 1.224l-2.52 6.282c-.288.732-.798 1.098-1.53 1.098s-1.242-.366-1.53-1.098l-1.566-4.086-1.53 4.068c-.276.744-.78 1.116-1.512 1.116zm14.856-10.62c-.504 0-.894-.114-1.17-.342-.264-.24-.396-.576-.396-1.008 0-.444.132-.78.396-1.008.276-.24.666-.36 1.17-.36 1.032 0 1.548.456 1.548 1.368 0 .9-.516 1.35-1.548 1.35zm0 10.602c-.444 0-.786-.126-1.026-.378-.228-.264-.342-.63-.342-1.098v-6.156c0-.996.456-1.494 1.368-1.494.432 0 .762.132.99.396.24.252.36.618.36 1.098v6.156c0 .468-.114.834-.342 1.098-.228.252-.564.378-1.008.378zm9.407.054c-2.484 0-3.726-1.206-3.726-3.618v-3.384h-.756c-.708 0-1.062-.336-1.062-1.008 0-.684.354-1.026 1.062-1.026h.756v-1.368c0-.924.456-1.386 1.368-1.386.9 0 1.35.462 1.35 1.386v1.368h1.71c.696 0 1.044.342 1.044 1.026 0 .672-.348 1.008-1.044 1.008h-1.71v3.276c0 .504.114.882.342 1.134.24.252.618.378 1.134.378a2.24 2.24 0 0 0 .504-.054c.156-.036.3-.06.432-.072a.48.48 0 0 1 .414.162c.108.12.162.366.162.738 0 .3-.048.558-.144.774-.096.204-.264.354-.504.45-.156.06-.372.108-.648.144-.264.048-.492.072-.684.072zm8.247 0c-2.484 0-3.726-1.206-3.726-3.618v-3.384h-.756c-.708 0-1.062-.336-1.062-1.008 0-.684.354-1.026 1.062-1.026h.756v-1.368c0-.924.456-1.386 1.368-1.386.9 0 1.35.462 1.35 1.386v1.368h1.71c.696 0 1.044.342 1.044 1.026 0 .672-.348 1.008-1.044 1.008h-1.71v3.276c0 .504.114.882.342 1.134.24.252.618.378 1.134.378a2.24 2.24 0 0 0 .504-.054c.156-.036.3-.06.432-.072a.48.48 0 0 1 .414.162c.108.12.162.366.162.738 0 .3-.048.558-.144.774-.096.204-.264.354-.504.45-.156.06-.372.108-.648.144-.264.048-.492.072-.684.072zm9.061 0c-1.044 0-1.944-.186-2.7-.558a4.21 4.21 0 0 1-1.728-1.602c-.396-.696-.594-1.512-.594-2.448 0-.912.192-1.71.576-2.394a4.24 4.24 0 0 1 1.602-1.62c.684-.396 1.47-.594 2.358-.594 1.284 0 2.304.408 3.06 1.224.756.804 1.134 1.896 1.134 3.276 0 .456-.282.684-.846.684h-5.292c.096.696.348 1.206.756 1.53.42.312.996.468 1.728.468a5.97 5.97 0 0 0 .972-.09 4.11 4.11 0 0 0 1.062-.36c.348-.168.642-.198.882-.09a.81.81 0 0 1 .486.504c.096.24.096.492 0 .756-.084.252-.282.462-.594.63-.42.228-.888.396-1.404.504a6.29 6.29 0 0 1-1.458.18zm-.378-7.416c-.576 0-1.044.174-1.404.522-.348.348-.564.834-.648 1.458h3.888c-.072-1.32-.684-1.98-1.836-1.98zm8.691 7.38c-.936 0-1.404-.462-1.404-1.386v-6.39c0-.912.444-1.368 1.332-1.368s1.332.456 1.332 1.368v.324c.432-1.068 1.326-1.644 2.682-1.728.3-.024.528.054.684.234.168.168.258.45.27.846.024.372-.054.666-.234.882-.168.216-.456.348-.864.396l-.414.036c-1.344.132-2.016.816-2.016 2.052v3.348c0 .924-.456 1.386-1.368 1.386z" fill="#000"/><g clip-path="url(#A)"><path d="M51 16.646c-1.288.572-2.672.957-4.124 1.13 1.483-.888 2.622-2.295 3.157-3.972-1.387.822-2.924 1.42-4.56 1.743a7.17 7.17 0 0 0-5.241-2.268 7.19 7.19 0 0 0-6.996 8.816c-5.966-.299-11.257-3.157-14.799-7.502-1.881 3.227-.976 7.449 2.221 9.587a7.15 7.15 0 0 1-3.251-.898c-.079 3.327 2.306 6.439 5.759 7.131a7.2 7.2 0 0 1-3.243.123c.913 2.853 3.564 4.928 6.708 4.986-3.019 2.367-6.822 3.424-10.631 2.975 3.178 2.037 6.953 3.226 11.008 3.226 13.332 0 20.864-11.26 20.409-21.359A14.62 14.62 0 0 0 51 16.646h0z" fill="#000"/></g><defs><clipPath id="A"><path fill="#fff" transform="translate(16 10)" d="M0 0h35v35H0z"/></clipPath></defs></svg>
